!!!!SEGMENT: pl-kk--i-533--006_studzinski-piotr--nr-6-adjutor-in-oportunatibus.krn
!!!cenid: 18xx:4475
!!!COM: Studziński, Piotr
!!!COM-rismID: pe50044409
!!!CDT: 1825/10/16-1869/04/20
!!!CNT: Polish
!!!OTL: Nr 6. Adjutor in oportunatibus
!!!PDT:
!!!AGN: Sacred
!!!YEC: Copyright 2022 Narodowy Instytut Fryderyka Chopina (https://polishscores.org)
!!!YEM: License CC-BY-4.0 (https://creativecommons.org/licenses/by/4.0)
!!!SMS-siglum: PL-Kk
!!!SMS-shelfmark: I.533
!!!SMS-variant: Soprano: PL-Kk I.533: 4 ; Alto: PL-Kk I.533: 10 ; Tenor: PL-Kk I.533: 15 ; Basso: PL-Kk I.533: 20
!!!SMS-altvar: Partytura: PL-Kk I.533: 27
!!!SMS-shelfwork: 006 W
!!!NIFC-rismSourceID: 1001210519
!!!NIFC-rismChildID: 1001210547
!!!NIFC-islandoraID: pl-kk:16805
!!!URL-pdf-islandora: https://repozytorium.nifc.pl/islandora/object/pl-kk%3A16805/datastream/PDF/view
!!!URL-scan: https://polish.musicsources.pl/pl/lokalizacje/galeria/rekopisy/7160/1 @EN{Scan on Polish Music Sources Website} @PL{Skany w portalu Dziedzictwo Muzyki Polskiej w otwartym dostępie}
!!!IIIF:
!!!ONB-nifc:
!!!AIN: 1 alto 1 bass 1 soprn 1 tenor
!!!key: G
**kern	**text	**dynam	**kern	**text	**dynam	**kern	**text	**dynam	**kern	**text	**dynam
*part4	*part4	*part4	*part3	*part3	*part3	*part2	*part2	*part2	*part1	*part1	*part1
*staff4	*staff4	*	*staff3	*staff3	*	*staff2	*staff2	*	*staff1	*staff1	*
*ICvox	*	*	*ICvox	*	*	*ICvox	*	*	*ICvox	*	*
*Ibass	*	*	*Itenor	*	*	*Ialto	*	*	*Isoprn	*	*
*I"Baſso	*	*	*I"Tenor	*	*	*I"Alto	*	*	*I"Soprano	*	*
*I'B	*	*	*I'T	*	*	*I'A	*	*	*I'S	*	*
*clefF4	*	*	*clefC4	*	*	*clefC3	*	*	*clefG2	*	*
*k[f#]	*	*	*k[f#]	*	*	*k[f#]	*	*	*k[f#]	*	*
*G:	*	*	*G:	*	*	*G:	*	*	*G:	*	*
*M4/4	*	*	*M4/4	*	*	*M4/4	*	*	*M4/4	*	*
*met(c)	*	*	*met(c)	*	*	*met(c)	*	*	*met(c)	*	*
*all\right	*	*	*all\right	*	*	*all\right	*	*	*all\right	*	*
*2\right	*	*below	*2\right	*	*below	*2\right	*	*below	*2\right	*	*below
!LO:TX:a:t=Maestosſo	!	!LO:DY:rj	!LO:TX:a:t=Maestosſo	!	!LO:DY:rj	!LO:TX:a:t=Maestoso	!	!LO:DY:rj	!LO:TX:a:t=Maestoso	!	!LO:DY:rj
16B\	Ad-	p	16B\	Ad-	p	16B/	Ad-	p	16b\	Ad-	p
=1	=1	=1	=1	=1	=1	=1	=1	=1	=1	=1	=1
2B^\	-ju-	.	2B^\	-ju-	.	2B^>/	-ju-	.	2b^\	-ju-	.
4G\	-tor	.	4G\	-tor	.	4G/	-tor	.	4g/	-tor	.
8.r	.	.	8.r	.	.	8.r	.	.	8.r	.	.
16d\	Ad-	.	16d\	Ad-	.	16d\	Ad-	.	16dd\	Ad-	.
=2	=2	=2	=2	=2	=2	=2	=2	=2	=2	=2	=2
2d^\	-ju-	.	2d^\	-ju-	.	2d^\	-ju-	.	2dd^\	-ju-	.
4B\	-tor	.	4B\	-tor	.	4B\	-tor	.	4b\	-tor	.
4r	.	.	4r	.	.	4r	.	.	4r	.	.
=3	=3	=3	=3	=3	=3	=3	=3	=3	=3	=3	=3
!LO:TX:a:t=1	!	!	!LO:TX:a:t=solo	!	!LO:DY:rj	!LO:TX:a:t=1	!	!	!LO:TX:a:t=solo	!	!LO:DY:rj
1r	.	.	4B\	in	p	1r	.	.	4dd\	in	p
.	.	.	8A#X\	op-	.	.	.	.	8cc#X\	op-	.
.	.	.	8B\	-por-	.	.	.	.	8dd\	-por-	.
.	.	.	8c\	-tu-	.	.	.	.	8ee\	-tu-	.
.	.	.	8B\	-ni-	.	.	.	.	8dd\	-ni-	.
.	.	.	8An\	-ta-	.	.	.	.	8ccn\	-ta-	.
.	.	.	8G\	-ti-	.	.	.	.	8b\	-ti-	.
!	!	!	!LO:LB:g=original	!	!	!	!	!	!	!	!
=4	=4	=4	=4	=4	=4	=4	=4	=4	=4	=4	=4
*	*	*	*	*	*	*	*	*above	*	*	*
!	!	!	!	!	!	!	!	!LO:DY:rj	!	!	!
4.D\	ta-	.	4.d\	-ta-	.	(4.g\	ta-	p	4.b\	-ta-	.
8D\	-ti-	.	8B\	-ti-	.	8d\)	-ti-	.	8g\	-ti-	.
4D\	-bus	.	4d\	-bus	.	4f#\	-bus	.	4a\	-bus	.
4r	.	.	4r	.	.	4r	.	.	4r	.	.
!	!	!	!	!	!	!	!	!	!LO:LB:g=original	!	!
=5	=5	=5	=5	=5	=5	=5	=5	=5	=5	=5	=5
4c\	in	.	4e-X\	in	.	4f#\	in	.	4a/	in	.
8c\	tri-	.	8e-\	tri-	.	8f#\	tri-	.	8a/	tri-	.
8c\	-bu-	.	8e-\	-bu-	.	8f#\	-bu-	.	8a/	-bu-	.
4A\	-la-	.	4e-\	-la-	.	4f#\	-la-	.	4cc\	-la-	.
4G\	-ti-	.	4e-\	-ti-	.	4g\	-ti-	.	4cc\	-ti-	.
!	!	!	!	!	!	!LO:LB:g=original	!	!	!	!	!
=6	=6	=6	=6	=6	=6	=6	=6	=6	=6	=6	=6
(4F#\	-o-	.	2d\	-o-	.	(4a\	-o-	.	2cc\	-o-	.
4A\)	.	.	.	.	.	4f#\)	.	.	.	.	.
2c\	-ne	.	2d\	-nem	.	2f#\	-ne	.	2a\	-ne	.
!LO:LB:g=original	!	!	!	!	!	!	!	!	!	!	!
=7	=7	=7	=7	=7	=7	=7	=7	=7	=7	=7	=7
4B\	in	.	4d\	in	.	4d\	in	.	4g/	in	.
8A\	tri-	.	8c\	tri-	.	8d\	tri-	.	8f#/	tri-	.
8G\	-bu-	.	8B\	-bu-	.	8d\	-bu-	.	8g/	-bu-	.
4F#\	-la-	.	4d\	-la-	.	4d\	-la-	.	4a/	-la-	.
4G\	-ti-	.	4d\	-ti-	.	4g\	-ti-	.	4b/	-ti-	.
=8	=8	=8	=8	=8	=8	=8	=8	=8	=8	=8	=8
2c#X 2D\	-o-	.	2e\	-o-	.	2g\	-o-	.	2b/	-o-	.
4d 4D\	-ne	.	4d\	-ne	.	4f#\	-ne	.	4a/	-ne	.
4r	.	.	4r	.	.	4r	.	.	4r	.	.
!	!	!	!LO:LB:g=original	!	!	!	!	!	!	!	!
=9	=9	=9	=9	=9	=9	=9	=9	=9	=9	=9	=9
!LO:TX:a:t=solo	!	!	!LO:TX:a:t=1	!	!	!LO:TX:a:t=1	!	!	!	!	!
2D\	spe-	.	1r	.	.	1r	.	.	1r	.	.
4F#\	-rant	.	.	.	.	.	.	.	.	.	.
4A\	in	.	.	.	.	.	.	.	.	.	.
=10	=10	=10	=10	=10	=10	=10	=10	=10	=10	=10	=10
(2d\	Te	.	4r	.	.	4r	.	.	4r	.	.
!	!	!	!	!	!	!	!	!	!	!	!LO:HP:a
.	.	.	4d\	spe-	.	4d\	spe-	.	4f#/	spe-	<
2cn\)	.	.	4d\	-rent	.	4f#\	-rent	.	4a/	-rent	.
.	.	.	4d\	in	.	4f#\	in	.	4dd\	in	[[
!	!	!	!	!	!	!	!	!	!LO:LB:g=original	!	!
=11	=11	=11	=11	=11	=11	=11	=11	=11	=11	=11	=11
2B\	qvi	.	2d\	te	.	2g\	te	.	2dd\	te	.
2G\	non	.	4d\	qvi	.	4g\	qvi	.	4b\	qvi	.
.	.	.	4d\	non	.	4g\	no-	.	4b\	no-	.
=12	=12	=12	=12	=12	=12	=12	=12	=12	=12	=12	=12
2.D\	ve-	.	2.d\	ve-	.	2.g\	-ve-	.	2.b\	-ve-	.
4D\	-runt	.	4B\	-runt	.	4d\	-runt	.	4g\	-runt	.
!	!	!	!	!	!	!LO:LB:g=original	!	!	!	!	!
=13	=13	=13	=13	=13	=13	=13	=13	=13	=13	=13	=13
2D\	Te	.	2d\	Te	.	2f#\	Te	.	2a/	Te	.
2r	.	.	2r	.	.	2r	.	.	2r	.	.
!LO:LB:g=original	!	!	!	!	!	!	!	!	!	!	!
=14	=14	=14	=14	=14	=14	=14	=14	=14	=14	=14	=14
*	*	*	*	*	*	*	*	*below	*	*	*
!	!	!LO:DY:rj	!	!	!LO:DY:rj	!	!	!LO:DY:rj	!	!	!LO:DY:rj
4.G\	Qvo-	f	4.B\	Qvo-	f	4.d\	Qvo-	f	4.g/	Qvo-	f
8G\	-ni-	.	8B\	-ni-	.	8d\	-ni-	.	8g/	-ni-	.
2G\	-am	.	2B\	-am	.	2d\	-am	.	2g/	-am	.
=15	=15	=15	=15	=15	=15	=15	=15	=15	=15	=15	=15
2G\	non	.	2d\	non	.	2g\	non	.	2b/	non	.
4F#\	de-	.	4c\	de-	.	4d#X\	de-	.	4a/	de-	.
4E\	-re-	.	4B\	-re-	.	4e\	-re-	.	4g/	-re-	.
!	!	!	!LO:LB:g=original	!	!	!	!	!	!	!	!
=16	=16	=16	=16	=16	=16	=16	=16	=16	=16	=16	=16
2A\	-lin-	.	2A\	-lin-	.	2dn\	-lin-	.	2f#/	-lin-	.
4A\	-qvis	.	4d\	-qvis	.	4f#\	-qvis	.	4a/	-qvis	.
4A\	qve-	.	4f#\	qve-	.	4a\	que-	.	4dd\	qve-	.
=17	=17	=17	=17	=17	=17	=17	=17	=17	=17	=17	=17
2.A\	-ren-	.	2.e\	-ren-	.	2.g\	-ren-	.	(2cc#X\	-ren-	.
.	.	.	.	.	.	.	.	.	4b\)	.	.
4A#X\	-tes	.	4e\	-tes	.	4g\	-tes	.	4cc#\	-tes	.
!	!	!	!	!	!	!	!	!	!LO:LB:g=original	!	!
=18	=18	=18	=18	=18	=18	=18	=18	=18	=18	=18	=18
2B\	Te	.	2d\	Te	.	2f#\	Te	.	2dd\	te	.
2r	.	.	2r	.	.	2r	.	.	2r	.	.
=19	=19	=19	=19	=19	=19	=19	=19	=19	=19	=19	=19
!	!	!LO:DY:rj	!LO:TX:a:t=2	!	!	!	!	!LO:DY:rj	!	!	!LO:DY:rj
8.G\	Qvo-	p	0r	.	.	8.b\	Qvo-	p	8.dd\	Qvo-	p
16G\	-ni-	.	.	.	.	16b\	-ni-	.	16dd\	-ni-	.
4G\	-am	.	.	.	.	4b\	-am	.	4dd\	-am	.
4B\	non	.	.	.	.	4a\	non	.	4cc#X\	non	.
4c#X\	in	.	.	.	.	4g\	in	.	4b\	in	.
!	!	!	!	!	!	!LO:LB:g=original	!	!	!	!	!
=20	=20	=20	=20	=20	=20	=20	=20	=20	=20	=20	=20
(4d\	fi-	.	.	.	.	(4f#\	fi-	.	(4a/	fi-	.
4A#X\)	.	.	.	.	.	4e\)	.	.	4g/)	.	.
2B\	-nem	.	.	.	.	2d\	-nem	.	2f#/	-nem	.
!LO:PB:g=original	!	!	!	!	!	!	!	!	!	!	!
=21	=21	=21	=21	=21	=21	=21	=21	=21	=21	=21	=21
!	!	!	!	!	!LO:DY:rj	!	!	!	!	!	!
4G\	non	.	4B\	non	p	4d\	non	.	4e/	non	.
8r	.	.	8r	.	.	8r	.	.	8r	.	.
8G\	in	.	8B\	in	.	8d\	in	.	8e/	in	.
4G\	fi-	.	4B\	fi-	.	4d\	fi-	.	4e/	fi-	.
8G\	-nem	.	8B\	-nem	.	8d\	-nem	.	8e/	-nem	.
8G\	o-	.	8B\	o-	.	8d\	o-	.	8e/	o-	.
=22	=22	=22	=22	=22	=22	=22	=22	=22	=22	=22	=22
4.G#X\	-bli-	.	4.B\	-bli-	.	4.d\	-bli-	.	4.e/	-bli-	.
8G#\	-vi-	.	8B\	-vi-	.	8d\	-vi-	.	8f#/	-vi-	.
2G#\	-o	.	2B\	-o	.	2d\	-o	.	2e/	-o	.
!	!	!	!LO:LB:g=original	!	!	!	!	!	!	!	!
=23	=23	=23	=23	=23	=23	=23	=23	=23	=23	=23	=23
!	!	!LO:DY:rj	!	!	!LO:DY:rj	!	!	!LO:DY:rj	!	!	!LO:DY:rj
2A\	e-	f	2d\	e-	f	(4.d\	e-	f	(4.f#/	e-	f
!	!	!	!	!	!	!	!	!	!LO:N:vis=16	!	!
.	.	.	.	.	.	8e\)	.	.	8g/)	.	.
4A\	-rit	.	4d\	-rit	.	4f#\	-rit	.	4a/	-rit	.
4r	.	.	4r	.	.	4r	.	.	4r	.	.
!	!	!	!	!	!	!	!	!	!LO:PB:g=original	!	!
=24	=24	=24	=24	=24	=24	=24	=24	=24	=24	=24	=24
2A\	e-	.	(4.d\	e-	.	2a\	e-	.	(4.ff#\	e-	.
.	.	.	8e\)	.	.	.	.	.	8ee\)	.	.
4A\	-rit	.	4f#\	-rit	.	4a\	-rit	.	4dd\	-rit	.
4r	.	.	4r	.	.	4r	.	.	4r	.	.
=25	=25	=25	=25	=25	=25	=25	=25	=25	=25	=25	=25
*	*	*	*	*	*	*	*	*	*	*	*above
!	!	!LO:DY:rj	!	!	!LO:DY:rj	!	!	!LO:DY:rj	!	!	!LO:DY:rj
(2B\	pau-	ff	(2e\	pau-	ff	(2g#X\	pau-	ff	2dd\	pau-	ff
4E\)	.	.	4B\)	.	.	4e\)	.	.	4g#X/	.	.
4E\	-pe-	.	4B\	-pe-	.	4d\	-pe-	.	4g#/	-pe-	.
!	!	!	!	!	!	!LO:LB:g=original	!	!	!	!	!
=26	=26	=26	=26	=26	=26	=26	=26	=26	=26	=26	=26
2AA/	-ris	.	2A\	-ris	.	2c#X\	-ris	.	2a/	-ris	.
2r	.	.	2r	.	.	2r	.	.	2r	.	.
!LO:LB:g=original	!	!	!	!	!	!	!	!	!	!	!
=27	=27	=27	=27	=27	=27	=27	=27	=27	=27	=27	=27
!LO:TX:a:t=2	!	!	!LO:TX:a:t=solo	!	!	!LO:TX:a:t=2	!	!	!LO:TX:a:t=2	!	!
0r	.	.	2A\	pa-	.	0r	.	.	0r	.	.
.	.	.	4c#X\	-ti-	.	.	.	.	.	.	.
.	.	.	4d\	-en-	.	.	.	.	.	.	.
=28	=28	=28	=28	=28	=28	=28	=28	=28	=28	=28	=28
.	.	.	(4e\	-ti-	.	.	.	.	.	.	.
.	.	.	4c#X\)	.	.	.	.	.	.	.	.
.	.	.	2A\	-am	.	.	.	.	.	.	.
=29	=29	=29	=29	=29	=29	=29	=29	=29	=29	=29	=29
!LO:ACC:color=grey	!	!LO:DY:rj	!	!	!LO:DY:rj	!	!	!LO:DY:rj	!	!	!LO:DY:rj
2.C#X/	pau-	p	2.A\	pau-	p	2.e\	pau-	p	2.gn/	pau-	p
4C#/	-pe-	.	4A\	-pe-	.	4f#\	-pe-	.	4a/	-pe-	.
!	!	!	!LO:LB:g=original	!	!	!	!	!	!	!	!
=30	=30	=30	=30	=30	=30	=30	=30	=30	=30	=30	=30
2D\	-rum	.	2A\	-rum	.	2d\	-rum	.	2f#/	-rum	.
2r	.	.	2r	.	.	2r	.	.	2r	.	.
=31	=31	=31	=31	=31	=31	=31	=31	=31	=31	=31	=31
!LO:TX:a:t=solo	!	!	!LO:TX:a:t=2	!	!	!LO:TX:a:t=2	!	!	!LO:TX:a:t=2	!	!
(2BB/	non	.	0r	.	.	0r	.	.	0r	.	.
4D#X/)	.	.	.	.	.	.	.	.	.	.	.
4F#\	per-	.	.	.	.	.	.	.	.	.	.
=32	=32	=32	=32	=32	=32	=32	=32	=32	=32	=32	=32
(4A\	-ri-	.	.	.	.	.	.	.	.	.	.
4c\)	.	.	.	.	.	.	.	.	.	.	.
2B\	-bit	.	.	.	.	.	.	.	.	.	.
=33	=33	=33	=33	=33	=33	=33	=33	=33	=33	=33	=33
2.D#X\	in	.	2.B\	in	.	2.f#\	in	.	2.a/	in	.
4D#\	e-	.	4B\	e-	.	4f#\	e-	.	4a/	e-	.
=34	=34	=34	=34	=34	=34	=34	=34	=34	=34	=34	=34
2E\	-ter-	.	2B\	-ter-	.	2f#\	-ter-	.	2a/	-ter-	.
4E\	-num	.	4B\	-num	.	4e\	-num	.	4g/	-num	.
4r	.	.	4r	.	.	4r	.	.	4r	.	.
!	!	!	!	!	!	!	!	!	!LO:LB:g=original	!	!
=35	=35	=35	=35	=35	=35	=35	=35	=35	=35	=35	=35
!LO:TX:a:t=2	!	!	!	!	!	!	!	!	!	!	!
0r	.	.	(4e\	ex-	.	(4g\	ex-	.	1b	ex-	.
.	.	.	4d#X\	.	.	4f#X\	.	.	.	.	.
.	.	.	4e\	.	.	4g\	.	.	.	.	.
.	.	.	4dn\)	.	.	4f#\)	.	.	.	.	.
=36	=36	=36	=36	=36	=36	=36	=36	=36	=36	=36	=36
.	.	.	2c\	-ur-	.	2e\	-ur-	.	(4b/	-ur-	.
.	.	.	.	.	.	.	.	.	2a/)	.	.
.	.	.	2B\	-ge	.	2d\	-ge	.	.	.	.
.	.	.	.	.	.	.	.	.	[4g/	-ge	.
!LO:LB:g=original	!	!	!	!	!	!LO:LB:g=original	!	!	!	!	!
=37	=37	=37	=37	=37	=37	=37	=37	=37	=37	=37	=37
2D\	Do-	.	2A\	Do-	.	2c\	Do-	.	4g/],	.	.
.	.	.	.	.	.	.	.	.	2f#/	Do-	.
2D\	-mi-	.	2G\	-mi-	.	2B\	-mi-	.	.	.	.
.	.	.	.	.	.	.	.	.	4e/	-mi-	.
=38	=38	=38	=38	=38	=38	=38	=38	=38	=38	=38	=38
2D\	-ne	.	2F#/	-ne	.	2A/	-ne	.	2d/	-ne	.
!	!	!LO:DY:rj	!	!	!LO:DY:rj	!	!	!LO:DY:rj	!	!	!LO:DY:rj
4F#\	non	f	4c\	non	f	4d\	non	f	4a/	non	f
4F#\	pre-	.	4c\	pre-	.	4d\	pre-	.	4a/	pre-	.
!	!	!	!LO:LB:g=original	!	!	!	!	!	!	!	!
=39	=39	=39	=39	=39	=39	=39	=39	=39	=39	=39	=39
4.G\	-va-	.	4.B\	-va-	.	4.d\	-va-	.	4.b/	-va-	.
8BB/	-le-	.	8G\	-le-	.	8d\	-le-	.	8g/	-le-	.
2BB/	-at	.	2G\	-at	.	2d\	-at	.	2g/	-at	.
=40	=40	=40	=40	=40	=40	=40	=40	=40	=40	=40	=40
!	!	!LO:DY:rj	!	!	!	!	!	!LO:DY:rj	!	!	!LO:DY:rj
2C/	non	p	2G/	non	.	2c\	non	p	4e/	non	p
.	.	.	.	.	.	.	.	.	8f#/L	.	.
.	.	.	.	.	.	.	.	.	8g#X/J	.	.
2C/	pre-	.	2c\	pre-	.	2e\	pre-	.	(8a\L	.	.
.	.	.	.	.	.	.	.	.	8b\	.	.
.	.	.	.	.	.	.	.	.	8cc\	pre-	.
.	.	.	.	.	.	.	.	.	8a\J)	.	.
!	!	!	!	!	!	!	!	!	!LO:LB:g=original	!	!
=41	=41	=41	=41	=41	=41	=41	=41	=41	=41	=41	=41
2D\	-va-	.	2B\	-va-	.	2d\	-va-	.	2g/	-va-	.
4D\	-le-	.	4A\	-le-	.	4c\	-le-	.	(8g/L	-le-	.
.	.	.	.	.	.	.	.	.	8f#/J)	.	.
4D\	-at	.	4A\	-at	.	4c\	-at	.	(8e/L	-at	.
.	.	.	.	.	.	.	.	.	8f#/J)	.	.
=42	=42	=42	=42	=42	=42	=42	=42	=42	=42	=42	=42
1G	ho-	.	1c;	ho-	.	1f#;	ho-	.	1a;	ho-	.
=43	=43	=43	=43	=43	=43	=43	=43	=43	=43	=43	=43
4G\	-mo	.	4B\	-mo.	.	4d\	-mo	.	4g/	-mo	.
4r	.	.	4r	.	.	4r	.	.	4r	.	.
2r	.	.	2r	.	.	2r	.	.	2r	.	.
==	==	==	==	==	==	==	==	==	==	==	==
*-	*-	*-	*-	*-	*-	*-	*-	*-	*-	*-	*-
!!!system-decoration: [(s1,s2,s3,s4)]
!!!RDF**kern: > = above
!!!RDF**kern: < = below
!!!RDF**kern: i = editorial accidental
!!!ENC: Andrzej Gręziak
!!!EED: Katarzyna Serwa
!!!END: 2023-10-26
!!!EEV: 2024-05-26
